icons/1_Primary/Webmin.svg

<svg width="1024" height="1024" viewBox="0 0 1024 1024" fill="none" xmlns="http://www.w3.org/2000/svg">
<g clip-path="url(#clip0_2_3906)">
<path d="M512 1024C794.77 1024 1024 794.77 1024 512C1024 229.23 794.77 0 512 0C229.23 0 0 229.23 0 512C0 794.77 229.23 1024 512 1024Z" fill="#9ABEFF"/>
<path d="M449.71 235C415.08 235.13 390.3 260.85 393.81 302.14C396.08 329.56 398.46 357.38 400.81 385.43C376.7 395.58 351.27 406.27 324.24 417.71C296.24 429.71 276.84 453.65 269.38 482.15C261.78 511.2 266.38 544.86 285.52 574.68C302.57 601.38 326.98 619.48 358.21 629.29C356.41 653.66 358.88 675.72 365.82 695.29C368.858 703.882 372.85 712.107 377.72 719.81C395.54 748.14 421.9 765.12 448.81 769.74C461.964 772.103 475.491 771.312 488.281 767.432C501.07 763.552 512.756 756.693 522.38 747.42C544.27 726.31 564.96 706.42 584.7 687.49C608.07 701.54 630.6 715.08 652.52 728.29C688.36 749.66 724.96 726.42 733.61 681.07C737.22 662.16 735.61 641.02 728.89 617.13C741.64 609.29 749.57 597.01 752.71 579.81C759.54 543.33 741.49 495.36 711.92 470.81C695.813 457.477 679.69 444.19 663.55 430.95C663.47 430.53 655.26 383.95 651.24 361.5C644.41 322.99 611.08 282.5 575.9 271.27C559.77 266.12 544.76 267.73 530.43 276.27C513.05 257.87 494.88 245.47 475.07 239.13C466.885 236.434 458.327 235.04 449.71 235ZM472.45 290.38C475.327 290.316 478.197 290.673 480.97 291.44C491.38 294.24 501.32 302.44 506.75 312.27C511.19 320.48 513.23 327.27 515.02 341.27C517.96 364.27 521.02 387.58 524.02 411.46C524.32 413.66 524.62 415.81 524.88 418C527.46 437.85 539.26 452.13 554.57 454.16C569.3 456.16 577.13 444.56 574.44 426C574.18 423.94 573.9 421.883 573.6 419.83C570.327 397.45 567.043 375.073 563.75 352.7C562.33 343.21 561.87 335.95 562.64 331.26C563.78 320.87 572.05 315.45 582.64 318.32C593.23 321.19 603.34 331.1 607.96 342.85C610.34 348.79 611.41 353.4 613.24 364.37C616.75 385.37 620.24 406.58 623.79 428.37C626.42 442.62 627.79 455.21 647.11 468.68C663.41 481.49 679.31 494.13 694.94 506.34C704.34 513.73 707.73 517.15 711.44 522.34C717.44 530.82 719.97 543.18 717.86 552.66C715.92 561.43 710.24 566.66 703.15 565.85C697.34 565.16 692.45 562.78 682.52 555.47C666.14 543.19 649.39 530.61 632.06 517.85C630.54 516.78 628.84 515.6 627.29 514.45C612.87 503.83 600.29 505.87 595.49 520.39C590.49 535.26 597.49 552.73 612.34 563.12C613.94 564.22 615.75 565.5 617.34 566.64C635.42 579.31 653.2 591.64 670.5 603.71C677.84 608.83 683.3 613.63 686.91 617.95C694.91 627.09 698.69 642.1 695.91 654.64C692.91 667.88 684.43 674.78 674.06 672.42C668.83 671.3 664.89 669.19 655.49 663.09C637.24 651.25 618.49 639 599.14 626.53C597.34 625.397 595.573 624.213 593.84 622.98C587.76 619.25 581.84 617.56 576.69 617.77C570.89 617.39 564.84 619.49 559.01 624.16C557.39 625.49 555.75 626.78 554.24 628.16C536.19 643.01 517.48 658.85 497.64 675.53C486.91 684.53 482.09 687.98 474.93 690.53C460.5 696.03 444.58 689.85 434.61 674.01C425.2 658.56 425.61 638.53 435.35 625.9C439.48 620.28 446.47 613.9 456.11 607.03C477.11 592.03 496.98 577.87 515.87 564.32C517.577 563.167 519.273 561.99 520.96 560.79C535.29 550.62 538.02 532.64 527.96 515.86C518.11 499.13 501.84 494.06 486.4 503.38C484.633 504.42 482.897 505.503 481.19 506.63C461.19 518.89 440.17 531.837 418.13 545.47C403.87 554.06 396.34 556.82 385.7 557.32C372.54 557.99 358.8 549.91 350.78 537.15C341.69 522.93 341.37 505.27 350.1 494.32C355 487.88 360.26 483.97 375.32 476.25C397.553 464.75 419.857 453.39 442.23 442.17C444.05 441.07 445.86 440.32 447.73 439.4C448.981 438.779 450.176 438.049 451.3 437.22C460.8 433.03 465.42 422.55 463.94 408.34C463.68 405.97 463.52 403.67 463.12 401.39C460.613 376.723 458 352.037 455.28 327.33C453.73 312.59 453.88 307.4 455.76 301.55C457.91 294.62 464.38 290.61 472.46 290.38H472.45ZM400.78 385.46L400.83 386.02C400.798 385.994 400.774 385.959 400.76 385.92V385.46H400.78ZM400.85 386.38C400.91 387.06 400.98 387.72 401.03 388.38C400.95 387.77 400.89 387.21 400.78 386.53C400.801 386.477 400.828 386.427 400.86 386.38H400.85ZM401.11 389.38L401.16 389.94H401.11V389.41V389.38ZM401.19 390.3V390.65C401.188 390.623 401.188 390.597 401.19 390.57C401.19 390.51 401.12 390.47 401.12 390.4C401.138 390.401 401.156 390.396 401.172 390.387C401.188 390.379 401.201 390.366 401.21 390.35L401.19 390.3Z" fill="white"/>
</g>
<defs>
<clipPath id="clip0_2_3906">
<rect width="1024" height="1024" fill="white"/>
</clipPath>
</defs>
</svg>

<svg width="1024" height="1024" fill="none" xmlns="http://www.w3.org/2000/svg"><g clip-path="url(#a)"><path d="M512 1024c282.77 0 512-229.23 512-512S794.77 0 512 0 0 229.23 0 512s229.23 512 512 512Z" fill="#9ABEFF"/><path d="M449.71 235c-34.63.13-59.41 25.85-55.9 67.14 2.27 27.42 4.65 55.24 7 83.29-24.11 10.15-49.54 20.84-76.57 32.28-28 12-47.4 35.94-54.86 64.44-7.6 29.05-3 62.71 16.14 92.53 17.05 26.7 41.46 44.8 72.69 54.61-1.8 24.37.67 46.43 7.61 66a121.981 121.981 0 0 0 11.9 24.52c17.82 28.33 44.18 45.31 71.09 49.93a84.5 84.5 0 0 0 73.57-22.32c21.89-21.11 42.58-41 62.32-59.93 23.37 14.05 45.9 27.59 67.82 40.8 35.84 21.37 72.44-1.87 81.09-47.22 3.61-18.91 2-40.05-4.72-63.94 12.75-7.84 20.68-20.12 23.82-37.32 6.83-36.48-11.22-84.45-40.79-109a14117.445 14117.445 0 0 0-48.37-39.86c-.08-.42-8.29-47-12.31-69.45-6.83-38.51-40.16-79-75.34-90.23-16.13-5.15-31.14-3.54-45.47 5-17.38-18.4-35.55-30.8-55.36-37.14a82.285 82.285 0 0 0-25.36-4.13Zm22.74 55.38a29.497 29.497 0 0 1 8.52 1.06c10.41 2.8 20.35 11 25.78 20.83 4.44 8.21 6.48 15 8.27 29 2.94 23 6 46.31 9 70.19.3 2.2.6 4.35.86 6.54 2.58 19.85 14.38 34.13 29.69 36.16 14.73 2 22.56-9.6 19.87-28.16-.26-2.06-.54-4.117-.84-6.17-3.273-22.38-6.557-44.757-9.85-67.13-1.42-9.49-1.88-16.75-1.11-21.44 1.14-10.39 9.41-15.81 20-12.94 10.59 2.87 20.7 12.78 25.32 24.53 2.38 5.94 3.45 10.55 5.28 21.52 3.51 21 7 42.21 10.55 64 2.63 14.25 4 26.84 23.32 40.31 16.3 12.81 32.2 25.45 47.83 37.66 9.4 7.39 12.79 10.81 16.5 16 6 8.48 8.53 20.84 6.42 30.32-1.94 8.77-7.62 14-14.71 13.19-5.81-.69-10.7-3.07-20.63-10.38-16.38-12.28-33.13-24.86-50.46-37.62-1.52-1.07-3.22-2.25-4.77-3.4-14.42-10.62-27-8.58-31.8 5.94-5 14.87 2 32.34 16.85 42.73 1.6 1.1 3.41 2.38 5 3.52 18.08 12.67 35.86 25 53.16 37.07 7.34 5.12 12.8 9.92 16.41 14.24 8 9.14 11.78 24.15 9 36.69-3 13.24-11.48 20.14-21.85 17.78-5.23-1.12-9.17-3.23-18.57-9.33-18.25-11.84-37-24.09-56.35-36.56a112.71 112.71 0 0 1-5.3-3.55c-6.08-3.73-12-5.42-17.15-5.21-5.8-.38-11.85 1.72-17.68 6.39-1.62 1.33-3.26 2.62-4.77 4-18.05 14.85-36.76 30.69-56.6 47.37-10.73 9-15.55 12.45-22.71 15-14.43 5.5-30.35-.68-40.32-16.52-9.41-15.45-9-35.48.74-48.11 4.13-5.62 11.12-12 20.76-18.87 21-15 40.87-29.16 59.76-42.71a255.706 255.706 0 0 0 5.09-3.53c14.33-10.17 17.06-28.15 7-44.93-9.85-16.73-26.12-21.8-41.56-12.48a119.075 119.075 0 0 0-5.21 3.25c-20 12.26-41.02 25.207-63.06 38.84-14.26 8.59-21.79 11.35-32.43 11.85-13.16.67-26.9-7.41-34.92-20.17-9.09-14.22-9.41-31.88-.68-42.83 4.9-6.44 10.16-10.35 25.22-18.07a6003.955 6003.955 0 0 1 66.91-34.08c1.82-1.1 3.63-1.85 5.5-2.77a23.978 23.978 0 0 0 3.57-2.18c9.5-4.19 14.12-14.67 12.64-28.88-.26-2.37-.42-4.67-.82-6.95a8905.302 8905.302 0 0 0-7.84-74.06c-1.55-14.74-1.4-19.93.48-25.78 2.15-6.93 8.62-10.94 16.7-11.17h-.01Zm-71.67 95.08.05.56a.228.228 0 0 1-.07-.1v-.46h.02Zm.07.92c.06.68.13 1.34.18 2-.08-.61-.14-1.17-.25-1.85a.771.771 0 0 1 .08-.15h-.01Zm.26 3 .05.56h-.05v-.56Zm.08.92v.35a.534.534 0 0 1 0-.08c0-.06-.07-.1-.07-.17a.096.096 0 0 0 .052-.013.09.09 0 0 0 .038-.037l-.02-.05Z" fill="#fff"/></g><defs><clipPath id="a"><path fill="#fff" d="M0 0h1024v1024H0z"/></clipPath></defs></svg>
